X: 53
T: Quant j'ay au cueur
N: Derived from Bus3049-Quant_jay_au_cueur.krn
C: Antoine Busnoys
%%abc-version 2.0
%%abcx-abcm2ps-target-version 5.9.1 (29 Sep 2008)
%%abc-creator hum2abc beta
%%abcx-conversion-date 2019/02/16 20:26:07
%%abc-edited-by Jesse Rodin
%%abc-edited-by Chris Gage 04-15-2015
%%abcx-initial-encoding-date 2015/05/12/
%%humdrum-veritas 3011672870
%%humdrum-veritas-data 1224622652
%%linebreak <none>
%%barnumbers 0
L: 1/4
M: 3/1
Q: 1/2=120
V: 1 clef=treble
V: 2 clef=treble-8
V: 3 clef=bass
K: C
[V:1] A6B2c4 | 
[V:2] d8e4 | 
[V:3] D,8A,4 | 
[V:1] d3ef4ee2d | 
[V:2] d6a4g2- | 
[V:3] D,8A,2E,2 | 
[V:1] B2A4d4^c2 | 
[V:2] g2f2d4e4 | 
[V:3] G,2D,4_B,2A,4 | 
[V:1] d4G2A3BAG/F/ | 
[V:2] d4B2A2d4 | 
[V:3] D,4z2D,2G,2F,G, | 
[V:1] E2A4G2E4 | 
[V:2] c12 | 
[V:3] A,4F,2E,2A,4 | 
[V:1] D4z2d3cdB | 
[V:2] z2f4d2f3g | 
[V:3] D,8D4 | 
[V:1] c4c2e3dcB | 
[V:2] e4a3ge4 | 
[V:3] A,8A,4 | 
[V:1] A4f3e/d/c4 | 
[V:2] f2d4a4z2 | 
[V:3] D,8A,4 | 
[V:1] f2e4d4^c2 | 
[V:2] a3ga2f2e4 | 
[V:3] z12 | 
[V:1] d4z2d3cd2 | 
[V:2] d4f6ed | 
[V:3] z2_B,4B,2B,4 | 
[V:1] e2c3BA3GF2 | 
[V:2] c4A4d4 | 
[V:3] A,4F,4D,4 | 
[V:1] E6F2G4 | 
[V:2] c6d2e4 | 
[V:3] A,6F,2E,4 | 
[V:1] A3GA2F2E4 | 
[V:2] f2e3dd4^c2 | 
[V:3] D,2E,2F,2D,2A,4 | 
[V:1] D4z2d6 | 
[V:2] d4f3ef3g | 
[V:3] D,4D3CB,4 | 
[V:1] c2df2ee4d2 | 
[V:2] a4g2e2f4 | 
[V:3] A,4C4D4 | 
[V:1] e4c8 | 
[V:2] e12 | 
[V:3] A,12 | 
[V:1] z4A4d4- | 
[V:2] z4f8 | 
[V:3] z4D4D2A,2- | 
[V:1] d2B2c4e3d | 
[V:2] f4e4c4 | 
[V:3] A,2D2A,8 | 
[V:1] B2A4d4^c2 | 
[V:2] d3ef3de4 | 
[V:3] G,3F,D,4A,4 | 
[V:1] d2f4e2c2d2 | 
[V:2] d4a6f2 | 
[V:3] D,6A,4D2 | 
[V:1] e4A2B2c2A2- | 
[V:2] g2a4d2e3f | 
[V:3] C2A,2F,2G,2C2D2- | 
[V:1] A2F2G2A4d2 | 
[V:2] d4B2c2d4 | 
[V:3] DCB,A,G,2F,2D,4 | 
[V:1] c2B3AA4G2 | 
[V:2] A2G2c4B4 | 
[V:3] z2E,2F,4G,2E,2 | 
[V:1] A8z4 | 
[V:2] A6d4^c2 | 
[V:3] F,2D,2F,3G,E,4 | 
[V:1] d8d4 | 
[V:2] d6e2f2g2 | 
[V:3] D,12 | 
[V:1] c8c4 | 
[V:2] e4z2e3ce2 | 
[V:3] A,8A,4 | 
[V:1] f4e2e3ddc | 
[V:2] d2a3ge2f4 | 
[V:3] D,4z2A,2D4 | 
[V:1] e3dBcd3cBA | 
[V:2] e2g4f2d4 | 
[V:3] C4G,2B,3A,G,F, | 
[V:1] G2c3AB2c2d2- | 
[V:2] e4c2d2e2f2 | 
[V:3] E,2A,4G,2E,2D,2- | 
[V:1] def2ee2de3f | 
[V:2] d4e2f2g2a2- | 
[V:3] D,2D,2A,2D2C2A,2- | 
[V:1] ed/c/B2A2d4^c2 | 
[V:2] a2g2f2d2e4 | 
[V:3] A,2z2D2B,2A,4 | 
[V:1] d12 |]  
[V:2] d12 |]  
[V:3] D,12 |]  



